**kern	**kern	**dynam
*part1	*part1	*part1
*staff2	*staff1	*
*I"Piano	*	*
*clefF4	*clefG2	*
*k[b-e-a-]	*k[b-e-a-]	*
*M2/4	*M2/4	*
=1	=1	=1
4E-	4B- 4e- 4g	mf
4E-	4B- 4e- 4g	.
=	=	=
4G	4B- 4e- 4b-	.
4G	4B- 4e- 4b-	.
=	=	=
4F	4B- 4e- 4a-	.
4F	4B- 4d 4a-	.
=	=	=
4A- 4B-	4d 4cc	<
4A- 4B-	4d 4b-	.
=	=	=
4G 4B-	4e- 4b-	.
4G	4d-X 4e- 4bn	.
=	=	=
4A-	4c 4e- 4cc	.
4An 4c	4f#X 4ee-	.
=	=	=
4B- 4e-	4g 4ee-	[
4BB- 4G	4e- 4b-	>
=	=	=
4BB- 4F	4e- 4a-	.
4BB- 4A-	4d 4f	.
=	=	=
2E- 2G	2B- 2e-	] mf
=	=	=
*-	*-	*-
!!!system-decoration: {(s1,s2)}
